dist/svg/u1F456.svg

<?xml version="1.0" encoding="UTF-8"?><svg id="a" xmlns="http://www.w3.org/2000/svg" viewBox="0 0 40 40"><g><path d="M20.52,17.991l1.591,19.509h9.791V3.337c0-.462-.375-.837-.837-.837H8.936c-.462,0-.837,.375-.837,.837V37.5h9.791l1.591-19.509h1.039Z" fill="#466cfb"/><polygon points="8.099 37.5 17.889 37.5 18.313 32.307 8.099 32.307 8.099 37.5" fill="#7d9dff"/><polygon points="31.901 37.5 22.111 37.5 21.687 32.307 31.901 32.307 31.901 37.5" fill="#7d9dff"/><path d="M8.936,2.5H31.064c.462,0,.837,.375,.837,.837v2.689H8.099V3.337c0-.462,.375-.837,.837-.837Z" fill="#3e5af4"/><path d="M12.496,6.027v2.179c0,2.429-1.969,4.398-4.398,4.398h0V6.027h4.398Z" fill="#5d7efb"/><path d="M27.504,6.027v2.179c0,2.429,1.969,4.398,4.398,4.398h0V6.027h-4.398Z" fill="#5d7efb"/><path d="M18.256,6.027h2.218v9.99h0c-1.224,0-2.218-.994-2.218-2.218V6.027h0Z" fill="#7d9dff"/></g><rect width="40" height="40" fill="none"/></svg>

<svg id="Layer_1" data-name="Layer 1" xmlns="http://www.w3.org/2000/svg" viewBox="0 0 40 40"><defs><style>.cls-1{fill:#466cfb;}.cls-2{fill:#7d9dff;}.cls-3{fill:#3e5af4;}.cls-4{fill:#5d7efb;}.cls-5{fill:none;}</style></defs><path class="cls-1" d="M20.52,17.991,22.111,37.5H31.9V3.337a.837.837,0,0,0-.837-.837H8.936a.837.837,0,0,0-.837.837V37.5h9.79L19.48,17.991Z"/><polygon class="cls-2" points="8.099 37.5 17.889 37.5 18.313 32.307 8.099 32.307 8.099 37.5"/><polygon class="cls-2" points="31.901 37.5 22.111 37.5 21.687 32.307 31.901 32.307 31.901 37.5"/><path class="cls-3" d="M8.936,2.5H31.064a.837.837,0,0,1,.837.837v2.69H8.1V3.337A.837.837,0,0,1,8.936,2.5Z"/><path class="cls-4" d="M12.5,6.027V8.206a4.4,4.4,0,0,1-4.4,4.4h0V6.027Z"/><path class="cls-4" d="M27.5,6.027V8.206a4.4,4.4,0,0,0,4.4,4.4h0V6.027Z"/><path class="cls-2" d="M18.256,6.027h2.218a0,0,0,0,1,0,0v9.99a0,0,0,0,1,0,0h0A2.218,2.218,0,0,1,18.256,13.8V6.027A0,0,0,0,1,18.256,6.027Z"/><rect class="cls-5" width="40" height="40"/></svg>
